source/svgs/bowtie/uEA60-brand-vsts.svg

<svg xmlns="http://www.w3.org/2000/svg" viewBox="0 0 448 448" enable-background="new 0 0 448 448"><path d="M223.904 3.552l-191.776 105.248v230.272l191.744 105.344 192.224-103.936v-232.736l-192.192-104.192zm160.224 317.888l-144.128 77.92v-80.736l71.616-41.952v-72.256l-86.432 50.176-88.576-50.432v72.736l71.392 41.76v80.576l-143.872-79.072v-192.416l143.68-78.848.128 88.704-59.744 35.616 75.84 44.32 75.744-44.32-59.84-35.712-.128-88.928 144.32 78.24v194.624z"/></svg>

<svg xmlns="http://www.w3.org/2000/svg" viewBox="0 0 448 448"><path d="M223.904 3.552L32.128 108.8v230.272l191.744 105.344L416.096 340.48V107.744L223.904 3.552zM384.128 321.44L240 399.36v-80.736l71.616-41.952v-72.256l-86.432 50.176-88.576-50.432v72.736L208 318.656v80.576L64.128 320.16V127.744l143.68-78.848.128 88.704-59.744 35.616 75.84 44.32 75.744-44.32-59.84-35.712-.128-88.928 144.32 78.24V321.44z"/></svg>
